brandFactory_export/1.Light/Data server_Servidor de datos_1Light.svg

<?xml version="1.0" encoding="UTF-8"?>
<svg width="24px" height="24px" viewBox="0 0 24 24" version="1.1" xmlns="http://www.w3.org/2000/svg" xmlns:xlink="http://www.w3.org/1999/xlink">
    <title>1.Light/Data server_Servidor de datos_1Light</title>
    <g id="Symbols" stroke="none" stroke-width="1" fill="none" fill-rule="evenodd">
        <g id="1.Light/Data-server_Servidor-de-datos_1Light" fill="#5CB615" fill-rule="nonzero">
            <path d="M20.9142857,22.6453782 C19.4689076,22.6453782 19.2436975,21.6672269 19.2369748,21.0857143 L19.2369748,21.0823529 L19.2403361,20.8941176 C19.2537815,20.3058824 19.492437,19.3310924 20.8773109,19.307563 C20.8907563,19.307563 20.907563,19.3176471 20.9243697,19.3176471 C20.9411765,19.3176471 20.9546218,19.3109244 20.9747899,19.307563 C22.3630252,19.3310924 22.5915966,20.302521 22.605042,20.8840336 L22.605042,21.0655462 C22.594958,21.6537815 22.3630252,22.6453782 20.9142857,22.6453782 L20.9142857,22.6453782 Z M4.38655462,20.8840336 L4.38655462,21.0655462 C4.37647059,21.6571429 4.14453782,22.6453782 2.69579832,22.6453782 C1.25042017,22.6453782 1.02521008,21.6705882 1.02184874,21.0890756 L1.02521008,20.897479 C1.03865546,20.302521 1.28067227,19.3041932 2.71260504,19.3041932 C4.14117647,19.3008403 4.37310924,20.292437 4.38655462,20.8840336 Z M7.91260504,11.3915966 L7.91260504,9.65042017 C8.16134454,9.78487395 8.43361345,9.90588235 8.75294118,10.0033613 C9.57310924,10.2487395 10.6453782,10.3865546 11.7747899,10.3865546 C12.9042017,10.3865546 13.9764706,10.2521008 14.7966387,10.0033613 C15.1058824,9.9092437 15.3747899,9.78823529 15.6201681,9.65042017 L15.6201681,11.3915966 C15.6201681,11.8016807 14.9142857,12.0739496 14.497479,12.1983193 C13.0319328,12.6319328 10.507563,12.6352941 9.03865546,12.1983193 C8.61848739,12.0739496 7.91260504,11.8016807 7.91260504,11.3915966 Z M9.03865546,1.36806723 C9.76806723,1.14957983 10.7394958,1.03193277 11.7680672,1.03193277 C12.8,1.03193277 13.7680672,1.14957983 14.497479,1.36806723 C14.8504202,1.47563025 15.405042,1.68403361 15.5697479,1.99663866 C15.4857143,2.14789916 15.2436975,2.38991597 14.5042017,2.61176471 C13.0453782,3.04537815 10.5042017,3.04537815 9.0487395,2.61176471 C8.48067227,2.44033613 8.10420168,2.21512605 7.98319328,1.98655462 C8.11092437,1.75798319 8.47731092,1.5394958 9.03865546,1.36806723 L9.03865546,1.36806723 Z M7.91260504,6.43361345 C8.16134454,6.56470588 8.4302521,6.68571429 8.75630252,6.78319328 C9.57647059,7.02857143 10.6487395,7.16302521 11.7747899,7.16302521 C12.9008403,7.16302521 13.9731092,7.02857143 14.7966387,6.78319328 C15.0823529,6.69579832 15.3613445,6.57815126 15.6201681,6.4302521 L15.6201681,8.36302521 C15.4823529,8.57815126 15.1058824,8.85378151 14.5008403,9.03529412 C13.0453782,9.46890756 10.5008403,9.46890756 9.04537815,9.03529412 C8.36638655,8.83361345 8.02352941,8.56470588 7.9092437,8.37647059 L7.9092437,6.43361345 L7.91260504,6.43361345 Z M8.75630252,3.57983193 C9.57647059,3.82521008 10.6487395,3.95966387 11.7747899,3.95966387 C12.9008403,3.95966387 13.9764706,3.82521008 14.7966387,3.57983193 C15.1226891,3.48571429 15.3848739,3.36470588 15.6235294,3.23697479 L15.6235294,5.1394958 C15.4857143,5.35462185 15.112605,5.6302521 14.507563,5.81512605 C13.0453782,6.2487395 10.507563,6.2487395 9.05210084,5.81512605 C8.37647059,5.61344538 8.03361345,5.3512605 7.91596639,5.15630252 L7.91596639,3.2302521 C8.15462185,3.35798319 8.42352941,3.4789916 8.75630252,3.57983193 L8.75630252,3.57983193 Z M23.6235294,20.8638655 C23.6033613,19.7882353 23.0016807,18.5613445 21.4352941,18.3361345 L21.4352941,15.1159664 C21.4352941,14.8369748 21.2067227,14.6084034 20.9277311,14.6117647 L12.2689076,14.6117647 L12.2689076,13.5327731 C13.2067227,13.4991597 14.0907563,13.3747899 14.7932773,13.1663866 C16.3193277,12.7092437 16.6420168,11.9462185 16.6420168,11.3882353 L16.6420168,2.17478992 C16.6420168,1.36470588 16.0201681,0.766386555 14.789916,0.4 C13.1529412,-0.087394958 10.3932773,-0.0907563025 8.74621849,0.4 C7.73445378,0.702521008 7.12941176,1.1697479 6.9512605,1.79159664 C6.91428571,1.91596639 6.89747899,2.04705882 6.89747899,2.17478992 L6.89747899,11.3915966 C6.89747899,11.9495798 7.22016807,12.7092437 8.74957983,13.1697479 C9.44537815,13.3747899 10.3260504,13.4991597 11.2537815,13.5327731 L11.2537815,14.6117647 L2.68907563,14.6117647 C2.41008403,14.6117647 2.18151261,14.8369748 2.18151261,15.1193277 L2.19495798,18.3361345 C0.635294118,18.5647059 0.0302521008,19.794958 0.00336134454,20.8739496 L0,21.0890756 L0,21.092437 C0.0100840336,22.2722689 0.722689076,23.6571429 2.69243697,23.6571429 C4.66218487,23.6571429 5.38487395,22.2689076 5.40168067,21.0823529 L5.40168067,20.8672269 C5.37815126,19.7915966 4.77310924,18.5613445 3.20672269,18.3394958 L3.19663866,15.6268908 L20.4134454,15.6268908 L20.4134454,18.3394958 C18.8537815,18.5647059 18.2453782,19.794958 18.2218487,20.8705882 C18.2184874,20.9411765 18.2184874,21.0252101 18.2184874,21.0991597 C18.2319328,22.2789916 18.9411765,23.6605042 20.9109244,23.6605042 C22.8806723,23.6605042 23.6,22.2722689 23.6201681,21.0857143 L23.6235294,20.8638655 L23.6235294,20.8638655 Z" id="Data-server_Servidor-de-datos_1Light"></path>
        </g>
    </g>
</svg>

<svg width="24" height="24" viewBox="0 0 24 24" xmlns="http://www.w3.org/2000/svg"><path d="M20.914 22.645c-1.445 0-1.67-.978-1.677-1.56v-.003l.003-.188c.014-.588.252-1.563 1.637-1.586.014 0 .03.01.047.01s.03-.007.05-.01c1.389.023 1.618.995 1.631 1.576v.182c-.01.588-.242 1.58-1.69 1.58zM4.387 20.884v.182c-.01.591-.242 1.58-1.691 1.58-1.446 0-1.67-.975-1.674-1.557l.003-.192c.014-.594.256-1.593 1.688-1.593 1.428-.003 1.66.988 1.674 1.58zm3.526-9.492V9.65c.248.135.52.256.84.353.82.246 1.892.384 3.022.384s2.201-.135 3.022-.384c.309-.094.578-.215.823-.353v1.742c0 .41-.706.682-1.123.806-1.465.434-3.99.437-5.458 0-.42-.124-1.126-.396-1.126-.806zM9.039 1.368c.73-.218 1.7-.336 2.73-.336 1.031 0 2 .118 2.728.336.353.108.908.316 1.073.629-.084.15-.326.393-1.066.615-1.459.433-4 .433-5.455 0-.568-.172-.945-.397-1.066-.625.128-.229.494-.448 1.056-.619zM7.913 6.434c.248.13.517.252.843.35.82.245 1.893.379 3.019.379 1.126 0 2.198-.134 3.022-.38.285-.087.564-.205.823-.353v1.933c-.138.215-.514.49-1.12.672-1.455.434-4 .434-5.455 0-.679-.201-1.021-.47-1.136-.659V6.434h.004zm.843-2.854c.82.245 1.893.38 3.019.38 1.126 0 2.201-.135 3.022-.38.326-.094.588-.215.827-.343v1.902c-.138.216-.511.491-1.116.676-1.463.434-4 .434-5.456 0-.676-.202-1.018-.464-1.136-.659V3.23c.239.128.508.249.84.35zm14.868 17.284c-.02-1.076-.622-2.303-2.189-2.528v-3.22a.504.504 0 00-.507-.504h-8.66v-1.08c.939-.033 1.823-.157 2.525-.366 1.526-.457 1.849-1.22 1.849-1.778V2.175c0-.81-.622-1.409-1.852-1.775-1.637-.487-4.397-.49-6.044 0-1.012.303-1.617.77-1.795 1.392a1.353 1.353 0 00-.054.383v9.217c0 .558.323 1.317 1.853 1.778.695.205 1.576.33 2.504.363v1.079H2.689a.507.507 0 00-.507.507l.013 3.217C.635 18.565.03 19.795.003 20.874L0 21.089v.003c.01 1.18.723 2.565 2.692 2.565 1.97 0 2.693-1.388 2.71-2.575v-.215c-.024-1.075-.629-2.306-2.195-2.528l-.01-2.712h17.216v2.712c-1.56.226-2.168 1.456-2.191 2.532-.004.07-.004.154-.004.228.014 1.18.723 2.562 2.693 2.562 1.97 0 2.689-1.389 2.71-2.575l.003-.222z" fill="#5CB615" fill-rule="nonzero"/></svg>
